X:1
T:Parking Lot Blues
T:Parking Lot Blues
T:Ray Brown
C:Ray Brown
Z:All Rights Reserved
L:1/8
M:4/4
K:G
V:1 treble 
%%MIDI program 0
V:1
 G |"G7" e2 z G _B2 z G | eG_BB G=FGG- | G z z2 z4 | z4 z2 z G |"C7" e2 z G _B2 z G | %6
 eG_BB G=FGG- |"G7" G z z2"F#7" z4 |"F7" z4"E7" z2 z G |"Am7" g2 z G f2 z G |"D7" eG_BB G=FGG- | %11
"G7" G z z2 z4 |"D7" z8 |] %13

